X: 607
T: Princess Amelia
P: Longways for as many as will
N: AKA Holborn March.
%R: march
B: "The Dancing-Master" printed by John Walsh, London
S: 6: CCDM1 http://imslp.org/wiki/The_Compleat_Country_Dancing-Master_(Various) V.1 p.23 #44
Z: 2013 John Chambers <jc:trillian.mit.edu>
N: Repeats added to satisfy the "Each Strain twice" instruction.
M: C|
L: 1/8
K: F
% - - - - - - - - - - - - - - - - - - - - - - - - -
|:\
c4 c4 | c3 Bc | d2c2 B2A2 | G6 C |\
F2 A4 G2 | A2 c4 B2 | A4 G4 | F8 :|
|:\
g4 g4 | g6 fg | a2g2 f2e2 | d6 G2 |\
c2 e4 d2 | e2 g4 f2 | e4 d4 | c8 |
c4 c4 | c6 Bc | d2c2 B2A2 | G6 C2 |\
F2 A4 G2 | A2 c4 b2 | a2gf g2e2 | f8 :|
% - - - - - - - - - - - - - - - - - - - - - - - - -
%%center Each Strain twice.
%%begintext align
%% The 1st Couple set, cast off and turn .|  The
%% 2d Couple do the same :|  1st and 2d Couple Hand
%% across half round, the same back again .|  then
%% the 1st Couple cross over and Figure.
%%endtext

%%sep 1 1 500
%%sep 1 1 500
